X:26
T:Dan Hughie Style
R:reel
C:Dougie MacDonald
O:20th century Cape Breton
N:Bookings,Mechanicals etc.
N:..... Dougie MacDonald <dougie@cranfordpub.com>
N:More tunes and information <http://www.cranfordpub.com/dougie>
Z:This abc transcription is for personal use only,
Z:provided this notice remains attached.
Z:Used by permission of the composer
Z:Paul Stewart Cranford 
Q:333
L:1/8
M:C|
K:Gminor
A|BABG d2 dg|f=efc dcAc|BABG d2 d^c|dcBA G2 GA|!
BABG d2 dg|f=efc dcAc|BABG cBce|dgfa g2 g||!
c|dgga bag=e|fFFB (3(ABc) AF|Ggga bagf|dcBA G2 Gc|!
dgga (3(gab) gd|fFFB (A/B/c) Ac|dBBd cAAa|bga^f g2 g|]!
